X: 1
T:Paddy Fahy's Jig
R:double jig
M:6/8
L:1/8
K:F
DGA B2B|cBc d2g|gfd Bcd|cAG FDC|!
DGA B2B|cBc d2g|gfd Bcd|cAF G3:|!
g3 fga|gfd Bcd|Bcd f2f|agf def|!
g2a bag|fdg fdc|ABG Adc|AGF G3:|!
